src/assets/bold/lm-crop-bold.svg

<svg width="24" height="24" viewBox="0 0 24 24" fill="none" xmlns="http://www.w3.org/2000/svg" fill="currentColor">
<path d="M7.01158 2.5C7.43699 2.5 7.78185 2.84486 7.78185 3.27027V6.24131H15.7413C16.2764 6.24131 16.7895 6.45386 17.1678 6.83219C17.5461 7.21052 17.7587 7.72365 17.7587 8.25869V16.2181H20.7297C21.1551 16.2181 21.5 16.563 21.5 16.9884C21.5 17.4138 21.1551 17.7587 20.7297 17.7587H17.7587V20.7297C17.7587 21.1551 17.4138 21.5 16.9884 21.5C16.563 21.5 16.2181 21.1551 16.2181 20.7297V17.7587H8.25869C7.72365 17.7587 7.21052 17.5461 6.83219 17.1678C6.45386 16.7895 6.24131 16.2764 6.24131 15.7413V7.78185H3.27027C2.84486 7.78185 2.5 7.43699 2.5 7.01158C2.5 6.58617 2.84486 6.24131 3.27027 6.24131H6.24131V3.27027C6.24131 2.84486 6.58617 2.5 7.01158 2.5ZM7.78185 7.78185V15.7413C7.78185 15.8678 7.83209 15.9891 7.92151 16.0785C8.01094 16.1679 8.13222 16.2181 8.25869 16.2181H16.2181V8.25869C16.2181 8.13222 16.1679 8.01094 16.0785 7.92151C15.9891 7.83209 15.8678 7.78185 15.7413 7.78185H7.78185Z" fill="black"/>
</svg>

<svg xmlns="http://www.w3.org/2000/svg" width="24" height="24" fill="currentColor" viewBox="0 0 24 24">
  <path d="M7.012 2.5a.77.77 0 0 1 .77.77v2.971h7.96a2.017 2.017 0 0 1 2.017 2.018v7.96h2.97a.77.77 0 0 1 0 1.54h-2.97v2.97a.77.77 0 0 1-1.54 0v-2.97h-7.96A2.018 2.018 0 0 1 6.24 15.74V7.78H3.27a.77.77 0 1 1 0-1.54h2.97V3.27a.77.77 0 0 1 .77-.771Zm.77 5.282v7.96a.477.477 0 0 0 .477.476h7.96v-7.96a.477.477 0 0 0-.478-.476h-7.96Z"/>
</svg>
